app/dist/common/images/chinalin-securitie.svg

<svg height="18" viewBox="0 0 18 18" width="18" xmlns="http://www.w3.org/2000/svg"><path d="m0 0h18v18h-18z" fill="#f0f3fa"/><path d="m9 13.59c2.3 0 4.2-1.69 4.53-3.88h-1.42c-.06.1-.14.2-.23.29l-1.88 1.88c-.55.56-1.45.56-2 0l-1.88-1.88a1.41 1.41 0 0 1 0-2l1.88-1.88a1.41 1.41 0 0 1 2 0l1.88 1.88c.1.1.17.19.23.3h1.42a4.59 4.59 0 1 0 -4.53 5.28zm0 1.41a6 6 0 1 0 0-12 6 6 0 0 0 0 12zm0-7.89 1.89 1.89-1.89 1.89-1.89-1.89z" fill="#a9212d" fill-rule="evenodd"/></svg>

<!-- by TradingView --><svg width="18" height="18" viewBox="0 0 18 18" xmlns="http://www.w3.org/2000/svg"><path fill="#F0F3FA" d="M0 0h18v18H0z"/><path fill-rule="evenodd" d="M9 13.59c2.3 0 4.2-1.69 4.53-3.88h-1.42c-.06.1-.14.2-.23.29L10 11.88c-.55.56-1.45.56-2 0L6.12 10a1.41 1.41 0 0 1 0-2L8 6.12a1.41 1.41 0 0 1 2 0L11.88 8c.1.1.17.19.23.3h1.42A4.59 4.59 0 1 0 9 13.58ZM9 15A6 6 0 1 0 9 3a6 6 0 0 0 0 12Zm0-7.89L10.89 9 9 10.89 7.11 9 9 7.11Z" fill="#A9212D"/></svg>
